resources/icons/msazure.svg

<?xml version="1.0" encoding="UTF-8" standalone="no"?>
<svg
   xmlns:dc="http://purl.org/dc/elements/1.1/"
   xmlns:cc="http://creativecommons.org/ns#"
   xmlns:rdf="http://www.w3.org/1999/02/22-rdf-syntax-ns#"
   xmlns:svg="http://www.w3.org/2000/svg"
   xmlns="http://www.w3.org/2000/svg"
   xmlns:sodipodi="http://sodipodi.sourceforge.net/DTD/sodipodi-0.dtd"
   xmlns:inkscape="http://www.inkscape.org/namespaces/inkscape"
   width="16"
   height="16"
   viewBox="0 0 16 16"
   fill="none"
   version="1.1"
   id="svg16"
   sodipodi:docname="msazure.svg"
   inkscape:version="0.92.4 (5da689c313, 2019-01-14)">
  <metadata
     id="metadata22">
    <rdf:RDF>
      <cc:Work
         rdf:about="">
        <dc:format>image/svg+xml</dc:format>
        <dc:type
           rdf:resource="http://purl.org/dc/dcmitype/StillImage" />
      </cc:Work>
    </rdf:RDF>
  </metadata>
  <defs
     id="defs20" />
  <sodipodi:namedview
     pagecolor="#ffffff"
     bordercolor="#666666"
     borderopacity="1"
     objecttolerance="10"
     gridtolerance="10"
     guidetolerance="10"
     inkscape:pageopacity="0"
     inkscape:pageshadow="2"
     inkscape:window-width="1920"
     inkscape:window-height="1001"
     id="namedview18"
     showgrid="false"
     inkscape:zoom="25.679692"
     inkscape:cx="8"
     inkscape:cy="12.922929"
     inkscape:window-x="-9"
     inkscape:window-y="-9"
     inkscape:window-maximized="1"
     inkscape:current-layer="svg16" />
  <path
     d="m 5.8436517,13.236835 1.9357187,1.940711 h 3.1415176 c 0.38285,0 0.690561,-0.312092 0.690561,-0.692343 V 7.2102274 L 5.8436517,12.996488 c -0.067982,0.06457 -0.067982,0.172189 0,0.240347 z"
     id="path2"
     inkscape:connector-curvature="0"
     style="fill:#235dc1;stroke-width:0.29855409" />
  <path
     d="M 0.91711993,5.1485656 V 8.2981853 L 2.8528353,10.238896 c 0.067982,0.06816 0.1753238,0.06816 0.2397284,0 L 8.8639334,4.452636 H 1.607681 c -0.379272,0 -0.69056107,0.3120921 -0.69056107,0.6959296 z"
     id="path4"
     inkscape:connector-curvature="0"
     style="fill:#3b6ec6;stroke-width:0.29855409" />
  <path
     d="M 8.180379,1.6217 3.5217883,8.7675194 C 3.3643546,9.0114535 3.3965569,9.3307201 3.6005055,9.5351943 l 2.9840689,2.9917797 c 0.2039481,0.204474 0.5259716,0.23676 0.7657001,0.07892 L 14.477727,7.9316864 c 0.45441,-0.2977432 0.726341,-0.807135 0.726341,-1.3488122 V 1.6001764 c 0,-0.391012 -0.318445,-0.71027874 -0.708452,-0.71027874 H 9.5292994 c -0.5438618,0 -1.0483652,0.27621954 -1.3489204,0.73180234 z"
     id="path6"
     inkscape:connector-curvature="0"
     style="fill:#5d8de4;stroke-width:0.29855409" />
  <path
     d="M 1.9654818,14.195232 V 11.669797 H 0.91711993 v 3.522696 H 4.4844146 v -0.997261 z"
     id="path8"
     inkscape:connector-curvature="0"
     style="fill:#9fbbf0;stroke-width:0.29855409" />
  <path
     d="m 11.628773,6.184299 c 0.980143,0 1.774707,-0.7966122 1.774707,-1.7792839 0,-0.9826748 -0.794564,-1.7792871 -1.774707,-1.7792871 -0.980144,0 -1.774707,0.7966123 -1.774707,1.7792871 0,0.9826717 0.794563,1.7792839 1.774707,1.7792839 z"
     id="path10"
     inkscape:connector-curvature="0"
     style="fill:#adc5f2;stroke-width:0.29855409" />
  <path
     d="M 8.4521012,6.7889029 4.657055,10.593737 5.5324519,11.471391 9.3274682,7.6665574 Z"
     id="path12"
     inkscape:connector-curvature="0"
     style="fill:#6c9aee;stroke-width:0.29855409" />
  <path
     d="M 4.776651,12.228335 5.5306032,11.472438 4.6552064,10.594813 3.9012541,11.35071 Z"
     id="path14"
     inkscape:connector-curvature="0"
     style="fill:#88acef;stroke-width:0.29855409" />
</svg>

<svg xmlns="http://www.w3.org/2000/svg" width="16" height="16" viewBox="0 0 16 16" fill="none"><path d="M5.844 13.237l1.935 1.94h3.142c.383 0 .69-.312.69-.692V7.21l-5.767 5.786a.167.167 0 000 .24z" fill="#235dc1" stroke-width=".299"/><path d="M.917 5.149v3.15l1.936 1.94a.166.166 0 00.24 0l5.77-5.786H1.609c-.38 0-.69.312-.69.696z" fill="#3b6ec6" stroke-width=".299"/><path d="M8.18 1.622L3.522 8.768a.614.614 0 00.079.767l2.984 2.992a.61.61 0 00.765.079l7.128-4.674c.454-.298.726-.807.726-1.35V1.6a.711.711 0 00-.708-.71H9.529c-.544 0-1.048.276-1.349.732z" fill="#5d8de4" stroke-width=".299"/><path d="M1.965 14.195V11.67H.917v3.522h3.567v-.997z" fill="#9fbbf0" stroke-width=".299"/><path d="M11.629 6.184c.98 0 1.774-.796 1.774-1.779 0-.983-.794-1.78-1.774-1.78s-1.775.797-1.775 1.78.795 1.78 1.775 1.78z" fill="#adc5f2" stroke-width=".299"/><path d="M8.452 6.789l-3.795 3.805.875.877 3.795-3.804z" fill="#6c9aee" stroke-width=".299"/><path d="M4.777 12.228l.754-.756-.876-.877-.754.756z" fill="#88acef" stroke-width=".299"/></svg>
